X: 1
T:The Mooncoin Jig
C:Trad
R:Jig
M:6/8
K:AMix
Z:Steeleye Span
cBA AEA|AEA Bcd|cBA Ace|dBG Bcd|cBA AEA|AEA Bcd|GBd g3|dBG Bcd:|
|: cde efg|faf ged|cde efg|faA Bcd|cde efg|afd bge|afd gec|dBG Bcd:|
|: cBA Aaf|ecA Bcd|cBA Age|dBG Bcd|cBA Aaa|Agg Aff|Aee efg|dBG Bcd:|
